!!!COM: Sauka, Michael-Fredrick Paul
!!!CDT: b.1909
!!!OTL: National Anthem, Malawi
!!!ENC: Davis, Matthew J.
!!Vocal Line Only
**kern
*clefG2
*k[b-]
*F:
*M4/4
=1-
4f
4c
4f
4g
=2
8a
8cc
8b-
8a
2g
=3
4a
8b-
8g
4f
4e
=4
1f
=5
4f
4c
4f
4g
=6
8a
8cc
8b-
8a
2g
=7
4cc
8b-
8g
4f
4e
=8
1f
=9
4a
4g
4a
4b-
=10
8a
8g
8f
8a
2g
=11
4cc
8cc
8cc
4ff
4dd
=12
1cc
=13
4a
4g
4a
4b-
=14
8a
8g
8f
8a
2g
=15
4cc
8cc
8b-
4a
4g
=16
1f
==|!
*-
